; generated by Slic3r 1.2.9 on 2023-03-02 at 22:07:14

; external perimeters extrusion width = 0.45mm
; perimeters extrusion width = 0.48mm
; infill extrusion width = 0.48mm
; solid infill extrusion width = 0.48mm
; top infill extrusion width = 0.48mm
; support material extrusion width = 0.45mm

M107 ; disable fan
M760

G21 ; set units to millimeters
G90 ; use absolute coordinates
M83 ; use relative distances for extrusion
G1 Z0.400 F4800.000 ; move to next layer (0)
G1 E-2.00000 F2400.00000 ; retract
G1 X7.420 Y-7.420 F4800.000 ; move to first perimeter point
G1 E2.00000 F2400.00000 ; unretract
G1 X7.420 Y7.420 E0.26382 F600.000 ; perimeter
G1 X-7.420 Y7.420 E0.26382 ; perimeter
G1 X-7.420 Y-7.420 E0.26382 ; perimeter
G1 X7.353 Y-7.420 E0.26262 ; perimeter
G1 E-2.00000 F2400.00000 ; retract
G1 X6.493 Y7.203 F4800.000 ; move to first infill point
G1 E2.00000 F2400.00000 ; unretract
G1 X6.493 Y-7.183 E0.25577 F600.000 ; infill
G1 X5.697 Y-7.183 E0.01414 ; infill
G1 X5.697 Y7.203 E0.25577 ; infill
G1 X4.902 Y7.203 E0.01414 ; infill
G1 X4.902 Y-7.183 E0.25577 ; infill
G1 X4.107 Y-7.183 E0.01414 ; infill
G1 X4.107 Y7.203 E0.25577 ; infill
G1 X3.312 Y7.203 E0.01414 ; infill
G1 X3.312 Y-7.183 E0.25577 ; infill
G1 X2.517 Y-7.183 E0.01414 ; infill
G1 X2.517 Y7.203 E0.25577 ; infill
G1 X1.721 Y7.203 E0.01414 ; infill
G1 X1.721 Y-7.183 E0.25577 ; infill
G1 X0.926 Y-7.183 E0.01414 ; infill
G1 X0.926 Y7.203 E0.25577 ; infill
G1 X0.131 Y7.203 E0.01414 ; infill
G1 X0.131 Y-7.183 E0.25577 ; infill
G1 X-0.664 Y-7.183 E0.01414 ; infill
G1 X-0.664 Y7.203 E0.25577 ; infill
G1 X-1.460 Y7.203 E0.01414 ; infill
G1 X-1.460 Y-7.183 E0.25577 ; infill
G1 X-2.255 Y-7.183 E0.01414 ; infill
G1 X-2.255 Y7.203 E0.25577 ; infill
G1 X-3.050 Y7.203 E0.01414 ; infill
G1 X-3.050 Y-7.183 E0.25577 ; infill
G1 X-3.845 Y-7.183 E0.01414 ; infill
G1 X-3.845 Y7.203 E0.25577 ; infill
G1 X-4.640 Y7.203 E0.01414 ; infill
G1 X-4.640 Y-7.183 E0.25577 ; infill
G1 X-5.436 Y-7.183 E0.01414 ; infill
G1 X-5.436 Y7.203 E0.25577 ; infill
G1 X-6.231 Y7.203 E0.01414 ; infill
G1 X-6.231 Y-7.183 E0.25577 ; infill
G1 X-7.026 Y-7.183 E0.01414 ; infill
G1 X-7.026 Y7.203 E0.25577 ; infill
G1 Z0.800 F4800.000 ; move to next layer (1)
G1 E-2.00000 F2400.00000 ; retract
G1 X7.395 Y-7.395 F4800.000 ; move to first perimeter point
G1 E2.00000 F2400.00000 ; unretract
G1 X7.395 Y7.395 E0.30478 F600.000 ; perimeter
G1 X-7.395 Y7.395 E0.30478 ; perimeter
G1 X-7.395 Y-7.395 E0.30478 ; perimeter
G1 X7.328 Y-7.395 E0.30339 ; perimeter
G1 X7.125 Y-6.231 F4800.000 ; move to first infill point
G1 X-7.145 Y-6.231 E0.32108 F600.000 ; infill
G1 X-7.145 Y-5.436 E0.01789 ; infill
G1 X7.125 Y-5.436 E0.32108 ; infill
G1 X7.125 Y-4.640 E0.01789 ; infill
G1 X-7.145 Y-4.640 E0.32108 ; infill
G1 X-7.145 Y-3.845 E0.01789 ; infill
G1 X7.125 Y-3.845 E0.32108 ; infill
G1 X7.125 Y-3.050 E0.01789 ; infill
G1 X-7.145 Y-3.050 E0.32108 ; infill
G1 X-7.145 Y-2.255 E0.01789 ; infill
G1 X7.125 Y-2.255 E0.32108 ; infill
G1 X7.125 Y-1.460 E0.01789 ; infill
G1 X-7.145 Y-1.460 E0.32108 ; infill
G1 X-7.145 Y-0.664 E0.01789 ; infill
G1 X7.125 Y-0.664 E0.32108 ; infill
G1 X7.125 Y0.131 E0.01789 ; infill
G1 X-7.145 Y0.131 E0.32108 ; infill
G1 X-7.145 Y0.926 E0.01789 ; infill
G1 X7.125 Y0.926 E0.32108 ; infill
G1 X7.125 Y1.721 E0.01789 ; infill
G1 X-7.145 Y1.721 E0.32108 ; infill
G1 X-7.145 Y2.517 E0.01789 ; infill
G1 X7.125 Y2.517 E0.32108 ; infill
G1 X7.125 Y3.312 E0.01789 ; infill
G1 X-7.145 Y3.312 E0.32108 ; infill
G1 X-7.145 Y4.107 E0.01789 ; infill
G1 X7.125 Y4.107 E0.32108 ; infill
G1 X7.125 Y4.902 E0.01789 ; infill
G1 X-7.145 Y4.902 E0.32108 ; infill
G1 X-7.145 Y5.697 E0.01789 ; infill
G1 X7.125 Y5.697 E0.32108 ; infill
G1 X7.125 Y6.493 E0.01789 ; infill
G1 X-7.145 Y6.493 E0.32108 ; infill
G1 Z1.200 F4800.000 ; move to next layer (2)
G1 E-2.00000 F2400.00000 ; retract
G1 X7.395 Y-7.395 F4800.000 ; move to first perimeter point
G1 E2.00000 F2400.00000 ; unretract
G1 X7.395 Y7.395 E0.30478 F600.000 ; perimeter
G1 X-7.395 Y7.395 E0.30478 ; perimeter
G1 X-7.395 Y-7.395 E0.30478 ; perimeter
G1 X7.328 Y-7.395 E0.30339 ; perimeter
G1 E-2.00000 F2400.00000 ; retract
G1 X-6.231 Y-7.125 F4800.000 ; move to first infill point
G1 E2.00000 F2400.00000 ; unretract
G1 X-6.231 Y7.145 E0.32108 F600.000 ; infill
G1 X-5.436 Y7.145 E0.01789 ; infill
G1 X-5.436 Y-7.125 E0.32108 ; infill
G1 X-4.640 Y-7.125 E0.01789 ; infill
G1 X-4.640 Y7.145 E0.32108 ; infill
G1 X-3.845 Y7.145 E0.01789 ; infill
G1 X-3.845 Y-7.125 E0.32108 ; infill
G1 X-3.050 Y-7.125 E0.01789 ; infill
G1 X-3.050 Y7.145 E0.32108 ; infill
G1 X-2.255 Y7.145 E0.01789 ; infill
G1 X-2.255 Y-7.125 E0.32108 ; infill
G1 X-1.460 Y-7.125 E0.01789 ; infill
G1 X-1.460 Y7.145 E0.32108 ; infill
G1 X-0.664 Y7.145 E0.01789 ; infill
G1 X-0.664 Y-7.125 E0.32108 ; infill
G1 X0.131 Y-7.125 E0.01789 ; infill
G1 X0.131 Y7.145 E0.32108 ; infill
G1 X0.926 Y7.145 E0.01789 ; infill
G1 X0.926 Y-7.125 E0.32108 ; infill
G1 X1.721 Y-7.125 E0.01789 ; infill
G1 X1.721 Y7.145 E0.32108 ; infill
G1 X2.517 Y7.145 E0.01789 ; infill
G1 X2.517 Y-7.125 E0.32108 ; infill
G1 X3.312 Y-7.125 E0.01789 ; infill
G1 X3.312 Y7.145 E0.32108 ; infill
G1 X4.107 Y7.145 E0.01789 ; infill
G1 X4.107 Y-7.125 E0.32108 ; infill
G1 X4.902 Y-7.125 E0.01789 ; infill
G1 X4.902 Y7.145 E0.32108 ; infill
G1 X5.697 Y7.145 E0.01789 ; infill
G1 X5.697 Y-7.125 E0.32108 ; infill
G1 X6.493 Y-7.125 E0.01789 ; infill
G1 X6.493 Y7.145 E0.32108 ; infill
M106 S173.4 ; enable fan
G1 Z1.600 F4800.000 ; move to next layer (3)
G1 E-2.00000 F2400.00000 ; retract
G1 X7.395 Y-7.395 F4800.000 ; move to first perimeter point
G1 E2.00000 F2400.00000 ; unretract
G1 X7.395 Y7.395 E0.30478 F600.000 ; perimeter
G1 X-7.395 Y7.395 E0.30478 ; perimeter
G1 X-7.395 Y-7.395 E0.30478 ; perimeter
G1 X7.328 Y-7.395 E0.30339 ; perimeter
G1 X7.125 Y-6.231 F4800.000 ; move to first infill point
G1 X-7.145 Y-6.231 E0.32108 F600.000 ; infill
G1 X-7.145 Y-5.436 E0.01789 ; infill
G1 X7.125 Y-5.436 E0.32108 ; infill
G1 X7.125 Y-4.640 E0.01789 ; infill
G1 X-7.145 Y-4.640 E0.32108 ; infill
G1 X-7.145 Y-3.845 E0.01789 ; infill
G1 X7.125 Y-3.845 E0.32108 ; infill
G1 X7.125 Y-3.050 E0.01789 ; infill
G1 X-7.145 Y-3.050 E0.32108 ; infill
G1 X-7.145 Y-2.255 E0.01789 ; infill
G1 X7.125 Y-2.255 E0.32108 ; infill
G1 X7.125 Y-1.460 E0.01789 ; infill
G1 X-7.145 Y-1.460 E0.32108 ; infill
G1 X-7.145 Y-0.664 E0.01789 ; infill
G1 X7.125 Y-0.664 E0.32108 ; infill
G1 X7.125 Y0.131 E0.01789 ; infill
G1 X-7.145 Y0.131 E0.32108 ; infill
G1 X-7.145 Y0.926 E0.01789 ; infill
G1 X7.125 Y0.926 E0.32108 ; infill
G1 X7.125 Y1.721 E0.01789 ; infill
G1 X-7.145 Y1.721 E0.32108 ; infill
G1 X-7.145 Y2.517 E0.01789 ; infill
G1 X7.125 Y2.517 E0.32108 ; infill
G1 X7.125 Y3.312 E0.01789 ; infill
G1 X-7.145 Y3.312 E0.32108 ; infill
G1 X-7.145 Y4.107 E0.01789 ; infill
G1 X7.125 Y4.107 E0.32108 ; infill
G1 X7.125 Y4.902 E0.01789 ; infill
G1 X-7.145 Y4.902 E0.32108 ; infill
G1 X-7.145 Y5.697 E0.01789 ; infill
G1 X7.125 Y5.697 E0.32108 ; infill
G1 X7.125 Y6.493 E0.01789 ; infill
G1 X-7.145 Y6.493 E0.32108 ; infill
G1 Z2.000 F4800.000 ; move to next layer (4)
G1 E-2.00000 F2400.00000 ; retract
G1 X7.395 Y-7.395 F4800.000 ; move to first perimeter point
G1 E2.00000 F2400.00000 ; unretract
G1 X7.395 Y7.395 E0.30478 F600.000 ; perimeter
G1 X-7.395 Y7.395 E0.30478 ; perimeter
G1 X-7.395 Y-7.395 E0.30478 ; perimeter
G1 X7.328 Y-7.395 E0.30339 ; perimeter
G1 E-2.00000 F2400.00000 ; retract
G1 X-6.231 Y-7.125 F4800.000 ; move to first infill point
G1 E2.00000 F2400.00000 ; unretract
G1 X-6.231 Y7.145 E0.32108 F600.000 ; infill
G1 X-5.436 Y7.145 E0.01789 ; infill
G1 X-5.436 Y-7.125 E0.32108 ; infill
G1 X-4.640 Y-7.125 E0.01789 ; infill
G1 X-4.640 Y7.145 E0.32108 ; infill
G1 X-3.845 Y7.145 E0.01789 ; infill
G1 X-3.845 Y-7.125 E0.32108 ; infill
G1 X-3.050 Y-7.125 E0.01789 ; infill
G1 X-3.050 Y7.145 E0.32108 ; infill
G1 X-2.255 Y7.145 E0.01789 ; infill
G1 X-2.255 Y-7.125 E0.32108 ; infill
G1 X-1.460 Y-7.125 E0.01789 ; infill
G1 X-1.460 Y7.145 E0.32108 ; infill
G1 X-0.664 Y7.145 E0.01789 ; infill
G1 X-0.664 Y-7.125 E0.32108 ; infill
G1 X0.131 Y-7.125 E0.01789 ; infill
G1 X0.131 Y7.145 E0.32108 ; infill
G1 X0.926 Y7.145 E0.01789 ; infill
G1 X0.926 Y-7.125 E0.32108 ; infill
G1 X1.721 Y-7.125 E0.01789 ; infill
G1 X1.721 Y7.145 E0.32108 ; infill
G1 X2.517 Y7.145 E0.01789 ; infill
G1 X2.517 Y-7.125 E0.32108 ; infill
G1 X3.312 Y-7.125 E0.01789 ; infill
G1 X3.312 Y7.145 E0.32108 ; infill
G1 X4.107 Y7.145 E0.01789 ; infill
G1 X4.107 Y-7.125 E0.32108 ; infill
G1 X4.902 Y-7.125 E0.01789 ; infill
G1 X4.902 Y7.145 E0.32108 ; infill
G1 X5.697 Y7.145 E0.01789 ; infill
G1 X5.697 Y-7.125 E0.32108 ; infill
G1 X6.493 Y-7.125 E0.01789 ; infill
G1 X6.493 Y7.145 E0.32108 ; infill
G1 Z2.400 F4800.000 ; move to next layer (5)
G1 E-2.00000 F2400.00000 ; retract
G1 X7.395 Y-7.395 F4800.000 ; move to first perimeter point
G1 E2.00000 F2400.00000 ; unretract
G1 X7.395 Y7.395 E0.30478 F600.000 ; perimeter
G1 X-7.395 Y7.395 E0.30478 ; perimeter
G1 X-7.395 Y-7.395 E0.30478 ; perimeter
G1 X7.328 Y-7.395 E0.30339 ; perimeter
G1 X7.125 Y-6.231 F4800.000 ; move to first infill point
G1 X-7.145 Y-6.231 E0.32108 F600.000 ; infill
G1 X-7.145 Y-5.436 E0.01789 ; infill
G1 X7.125 Y-5.436 E0.32108 ; infill
G1 X7.125 Y-4.640 E0.01789 ; infill
G1 X-7.145 Y-4.640 E0.32108 ; infill
G1 X-7.145 Y-3.845 E0.01789 ; infill
G1 X7.125 Y-3.845 E0.32108 ; infill
G1 X7.125 Y-3.050 E0.01789 ; infill
G1 X-7.145 Y-3.050 E0.32108 ; infill
G1 X-7.145 Y-2.255 E0.01789 ; infill
G1 X7.125 Y-2.255 E0.32108 ; infill
G1 X7.125 Y-1.460 E0.01789 ; infill
G1 X-7.145 Y-1.460 E0.32108 ; infill
G1 X-7.145 Y-0.664 E0.01789 ; infill
G1 X7.125 Y-0.664 E0.32108 ; infill
G1 X7.125 Y0.131 E0.01789 ; infill
G1 X-7.145 Y0.131 E0.32108 ; infill
G1 X-7.145 Y0.926 E0.01789 ; infill
G1 X7.125 Y0.926 E0.32108 ; infill
G1 X7.125 Y1.721 E0.01789 ; infill
G1 X-7.145 Y1.721 E0.32108 ; infill
G1 X-7.145 Y2.517 E0.01789 ; infill
G1 X7.125 Y2.517 E0.32108 ; infill
G1 X7.125 Y3.312 E0.01789 ; infill
G1 X-7.145 Y3.312 E0.32108 ; infill
G1 X-7.145 Y4.107 E0.01789 ; infill
G1 X7.125 Y4.107 E0.32108 ; infill
G1 X7.125 Y4.902 E0.01789 ; infill
G1 X-7.145 Y4.902 E0.32108 ; infill
G1 X-7.145 Y5.697 E0.01789 ; infill
G1 X7.125 Y5.697 E0.32108 ; infill
G1 X7.125 Y6.493 E0.01789 ; infill
G1 X-7.145 Y6.493 E0.32108 ; infill
G1 Z2.800 F4800.000 ; move to next layer (6)
G1 E-2.00000 F2400.00000 ; retract
G1 X7.395 Y-7.395 F4800.000 ; move to first perimeter point
G1 E2.00000 F2400.00000 ; unretract
G1 X7.395 Y7.395 E0.30478 F600.000 ; perimeter
G1 X-7.395 Y7.395 E0.30478 ; perimeter
G1 X-7.395 Y-7.395 E0.30478 ; perimeter
G1 X7.328 Y-7.395 E0.30339 ; perimeter
G1 E-2.00000 F2400.00000 ; retract
G1 X-6.231 Y-7.125 F4800.000 ; move to first infill point
G1 E2.00000 F2400.00000 ; unretract
G1 X-6.231 Y7.145 E0.32108 F600.000 ; infill
G1 X-5.436 Y7.145 E0.01789 ; infill
G1 X-5.436 Y-7.125 E0.32108 ; infill
G1 X-4.640 Y-7.125 E0.01789 ; infill
G1 X-4.640 Y7.145 E0.32108 ; infill
G1 X-3.845 Y7.145 E0.01789 ; infill
G1 X-3.845 Y-7.125 E0.32108 ; infill
G1 X-3.050 Y-7.125 E0.01789 ; infill
G1 X-3.050 Y7.145 E0.32108 ; infill
G1 X-2.255 Y7.145 E0.01789 ; infill
G1 X-2.255 Y-7.125 E0.32108 ; infill
G1 X-1.460 Y-7.125 E0.01789 ; infill
G1 X-1.460 Y7.145 E0.32108 ; infill
G1 X-0.664 Y7.145 E0.01789 ; infill
G1 X-0.664 Y-7.125 E0.32108 ; infill
G1 X0.131 Y-7.125 E0.01789 ; infill
G1 X0.131 Y7.145 E0.32108 ; infill
G1 X0.926 Y7.145 E0.01789 ; infill
G1 X0.926 Y-7.125 E0.32108 ; infill
G1 X1.721 Y-7.125 E0.01789 ; infill
G1 X1.721 Y7.145 E0.32108 ; infill
G1 X2.517 Y7.145 E0.01789 ; infill
G1 X2.517 Y-7.125 E0.32108 ; infill
G1 X3.312 Y-7.125 E0.01789 ; infill
G1 X3.312 Y7.145 E0.32108 ; infill
G1 X4.107 Y7.145 E0.01789 ; infill
G1 X4.107 Y-7.125 E0.32108 ; infill
G1 X4.902 Y-7.125 E0.01789 ; infill
G1 X4.902 Y7.145 E0.32108 ; infill
G1 X5.697 Y7.145 E0.01789 ; infill
G1 X5.697 Y-7.125 E0.32108 ; infill
G1 X6.493 Y-7.125 E0.01789 ; infill
G1 X6.493 Y7.145 E0.32108 ; infill
G1 Z3.200 F4800.000 ; move to next layer (7)
G1 E-2.00000 F2400.00000 ; retract
G1 X7.395 Y-7.395 F4800.000 ; move to first perimeter point
G1 E2.00000 F2400.00000 ; unretract
G1 X7.395 Y7.395 E0.30478 F600.000 ; perimeter
G1 X-7.395 Y7.395 E0.30478 ; perimeter
G1 X-7.395 Y-7.395 E0.30478 ; perimeter
G1 X7.328 Y-7.395 E0.30339 ; perimeter
G1 X7.125 Y-6.231 F4800.000 ; move to first infill point
G1 X-7.145 Y-6.231 E0.32108 F600.000 ; infill
G1 X-7.145 Y-5.436 E0.01789 ; infill
G1 X7.125 Y-5.436 E0.32108 ; infill
G1 X7.125 Y-4.640 E0.01789 ; infill
G1 X-7.145 Y-4.640 E0.32108 ; infill
G1 X-7.145 Y-3.845 E0.01789 ; infill
G1 X7.125 Y-3.845 E0.32108 ; infill
G1 X7.125 Y-3.050 E0.01789 ; infill
G1 X-7.145 Y-3.050 E0.32108 ; infill
G1 X-7.145 Y-2.255 E0.01789 ; infill
G1 X7.125 Y-2.255 E0.32108 ; infill
G1 X7.125 Y-1.460 E0.01789 ; infill
G1 X-7.145 Y-1.460 E0.32108 ; infill
G1 X-7.145 Y-0.664 E0.01789 ; infill
G1 X7.125 Y-0.664 E0.32108 ; infill
G1 X7.125 Y0.131 E0.01789 ; infill
G1 X-7.145 Y0.131 E0.32108 ; infill
G1 X-7.145 Y0.926 E0.01789 ; infill
G1 X7.125 Y0.926 E0.32108 ; infill
G1 X7.125 Y1.721 E0.01789 ; infill
G1 X-7.145 Y1.721 E0.32108 ; infill
G1 X-7.145 Y2.517 E0.01789 ; infill
G1 X7.125 Y2.517 E0.32108 ; infill
G1 X7.125 Y3.312 E0.01789 ; infill
G1 X-7.145 Y3.312 E0.32108 ; infill
G1 X-7.145 Y4.107 E0.01789 ; infill
G1 X7.125 Y4.107 E0.32108 ; infill
G1 X7.125 Y4.902 E0.01789 ; infill
G1 X-7.145 Y4.902 E0.32108 ; infill
G1 X-7.145 Y5.697 E0.01789 ; infill
G1 X7.125 Y5.697 E0.32108 ; infill
G1 X7.125 Y6.493 E0.01789 ; infill
G1 X-7.145 Y6.493 E0.32108 ; infill
G1 Z3.600 F4800.000 ; move to next layer (8)
G1 E-2.00000 F2400.00000 ; retract
G1 X7.395 Y-7.395 F4800.000 ; move to first perimeter point
G1 E2.00000 F2400.00000 ; unretract
G1 X7.395 Y7.395 E0.30478 F600.000 ; perimeter
G1 X-7.395 Y7.395 E0.30478 ; perimeter
G1 X-7.395 Y-7.395 E0.30478 ; perimeter
G1 X7.328 Y-7.395 E0.30339 ; perimeter
G1 E-2.00000 F2400.00000 ; retract
G1 X-6.231 Y-7.125 F4800.000 ; move to first infill point
G1 E2.00000 F2400.00000 ; unretract
G1 X-6.231 Y7.145 E0.32108 F600.000 ; infill
G1 X-5.436 Y7.145 E0.01789 ; infill
G1 X-5.436 Y-7.125 E0.32108 ; infill
G1 X-4.640 Y-7.125 E0.01789 ; infill
G1 X-4.640 Y7.145 E0.32108 ; infill
G1 X-3.845 Y7.145 E0.01789 ; infill
G1 X-3.845 Y-7.125 E0.32108 ; infill
G1 X-3.050 Y-7.125 E0.01789 ; infill
G1 X-3.050 Y7.145 E0.32108 ; infill
G1 X-2.255 Y7.145 E0.01789 ; infill
G1 X-2.255 Y-7.125 E0.32108 ; infill
G1 X-1.460 Y-7.125 E0.01789 ; infill
G1 X-1.460 Y7.145 E0.32108 ; infill
G1 X-0.664 Y7.145 E0.01789 ; infill
G1 X-0.664 Y-7.125 E0.32108 ; infill
G1 X0.131 Y-7.125 E0.01789 ; infill
G1 X0.131 Y7.145 E0.32108 ; infill
G1 X0.926 Y7.145 E0.01789 ; infill
G1 X0.926 Y-7.125 E0.32108 ; infill
G1 X1.721 Y-7.125 E0.01789 ; infill
G1 X1.721 Y7.145 E0.32108 ; infill
G1 X2.517 Y7.145 E0.01789 ; infill
G1 X2.517 Y-7.125 E0.32108 ; infill
G1 X3.312 Y-7.125 E0.01789 ; infill
G1 X3.312 Y7.145 E0.32108 ; infill
G1 X4.107 Y7.145 E0.01789 ; infill
G1 X4.107 Y-7.125 E0.32108 ; infill
G1 X4.902 Y-7.125 E0.01789 ; infill
G1 X4.902 Y7.145 E0.32108 ; infill
G1 X5.697 Y7.145 E0.01789 ; infill
G1 X5.697 Y-7.125 E0.32108 ; infill
G1 X6.493 Y-7.125 E0.01789 ; infill
G1 X6.493 Y7.145 E0.32108 ; infill
G1 Z4.000 F4800.000 ; move to next layer (9)
G1 E-2.00000 F2400.00000 ; retract
G1 X7.395 Y-7.395 F4800.000 ; move to first perimeter point
G1 E2.00000 F2400.00000 ; unretract
G1 X7.395 Y7.395 E0.30478 F600.000 ; perimeter
G1 X-7.395 Y7.395 E0.30478 ; perimeter
G1 X-7.395 Y-7.395 E0.30478 ; perimeter
G1 X7.328 Y-7.395 E0.30339 ; perimeter
G1 X7.125 Y-6.231 F4800.000 ; move to first infill point
G1 X-7.145 Y-6.231 E0.32108 F600.000 ; infill
G1 X-7.145 Y-5.436 E0.01789 ; infill
G1 X7.125 Y-5.436 E0.32108 ; infill
G1 X7.125 Y-4.640 E0.01789 ; infill
G1 X-7.145 Y-4.640 E0.32108 ; infill
G1 X-7.145 Y-3.845 E0.01789 ; infill
G1 X7.125 Y-3.845 E0.32108 ; infill
G1 X7.125 Y-3.050 E0.01789 ; infill
G1 X-7.145 Y-3.050 E0.32108 ; infill
G1 X-7.145 Y-2.255 E0.01789 ; infill
