; BEGIN_HEADER
; This file was generated by a biox6 at 16.05.2023 16:21:14 Eastern Daylight Time
; VERSION: 1.1.0
; PRINTER_NAME: biox6
; DATE_TIME: 16.05.2023 16:21:14 Eastern Daylight Time
; T1: TemperatureControlled
; END_HEADER
T0 Z0.2706
G1 X-5.42253 Y-4.17936
G1 X-4.29991 Y-6.24158 E1 F600
G1 X4.48982 Y-6.24158 E1 F600
G1 X4.34244 Y-7.41089
G1 X-4.15252 Y-7.41089 E1 F600
G1 X-8.4 Y0.391543 E1 F600
G1 X-4.15252 Y8.19398 E1 F600
G1 X4.34244 Y8.19398 E1 F600
G1 X8.58992 Y0.391543 E1 F600
G1 X4.34244 Y-7.41089 E1 F600
G1 X5.09995 Y-5.1208
G1 X3.23949 Y-6.98126 E1 F600
G1 X5.61245 Y-4.17936
G1 X-5.42253 Y-4.17936 E1 F600
G1 X-6.54517 Y-2.11713
G1 X6.73508 Y-2.11713 E1 F600
G1 X5.61245 Y-4.17936 E1 F600
G1 X7.85771 Y-0.0549109
G1 X-7.66779 Y-0.0549109 E1 F600
G1 X-6.54517 Y-2.11713 E1 F600
G1 X-7.0044 Y-1.27355
G1 X-1.29668 Y-6.98126 E1 F600
G1 X-7.03125 Y2.00731
G1 X7.22116 Y2.00731 E1 F600
G1 X8.10075 Y0.391543 E1 F600
G1 X7.85771 Y-0.0549109 E1 F600
G1 X7.75029 Y1.03532
G1 X-0.26629 Y-6.98126 E1 F600
G1 X-6.9425 Y2.17033
G1 X2.2091 Y-6.98126 E1 F600
G1 X6.51454 Y3.30535
G1 X-3.77207 Y-6.98126 E1 F600
G1 X-5.90862 Y4.06953
G1 X-7.03125 Y2.00731 E1 F600
G1 X-5.70675 Y4.44036
G1 X4.66091 Y-5.9273 E1 F600
G1 X6.09853 Y4.06953
G1 X-5.90862 Y4.06953 E1 F600
G1 X-4.78599 Y6.13176
G1 X4.9759 Y6.13176 E1 F600
G1 X6.09853 Y4.06953 E1 F600
G1 X5.27879 Y5.57537
G1 X-5.08887 Y-4.79228 E1 F600
G1 X-4.47099 Y6.71038
G1 X5.89666 Y-3.65727 E1 F600
G1 X3.96199 Y7.76435
G1 X-6.32462 Y-2.52226 E1 F600
G1 X-3.04957 Y7.76435
G1 X-4.91003 Y5.90388 E1 F600
G1 X-2.01918 Y7.76435
G1 X7.13242 Y-1.38725 E1 F600
G1 X1.4866 Y7.76435
G1 X7.19431 Y2.05663 E1 F600
G1 X0.456208 Y7.76435
G1 X-7.56038 Y-0.252236 E1 F600
G1 Z0.6806
G1 X-5.42253 Y-4.17936
G1 X-4.29991 Y-6.24158 E1 F600
G1 X4.48982 Y-6.24158 E1 F600
G1 X4.34244 Y-7.41089
G1 X-4.15252 Y-7.41089 E1 F600
G1 X-8.4 Y0.391543 E1 F600
G1 X-4.15252 Y8.19398 E1 F600
G1 X4.34244 Y8.19398 E1 F600
G1 X8.58992 Y0.391543 E1 F600
G1 X4.34244 Y-7.41089 E1 F600
G1 X5.09995 Y-5.1208
G1 X3.23949 Y-6.98126 E1 F600
G1 X5.61245 Y-4.17936
G1 X-5.42253 Y-4.17936 E1 F600
G1 X-6.54517 Y-2.11713
G1 X6.73508 Y-2.11713 E1 F600
G1 X5.61245 Y-4.17936 E1 F600
G1 X7.85771 Y-0.0549109
G1 X-7.66779 Y-0.0549109 E1 F600
G1 X-6.54517 Y-2.11713 E1 F600
G1 X-7.0044 Y-1.27355
G1 X-1.29668 Y-6.98126 E1 F600
G1 X-7.03125 Y2.00731
G1 X7.22116 Y2.00731 E1 F600
G1 X8.10075 Y0.391543 E1 F600
G1 X7.85771 Y-0.0549109 E1 F600
G1 X7.75029 Y1.03532
G1 X-0.26629 Y-6.98126 E1 F600
G1 X-6.9425 Y2.17033
G1 X2.2091 Y-6.98126 E1 F600
G1 X6.51454 Y3.30535
G1 X-3.77207 Y-6.98126 E1 F600
G1 X-5.90862 Y4.06953
G1 X-7.03125 Y2.00731 E1 F600
G1 X-5.70675 Y4.44036
G1 X4.66091 Y-5.9273 E1 F600
G1 X6.09853 Y4.06953
G1 X-5.90862 Y4.06953 E1 F600
G1 X-4.78599 Y6.13176
G1 X4.9759 Y6.13176 E1 F600
G1 X6.09853 Y4.06953 E1 F600
G1 X5.27879 Y5.57537
G1 X-5.08887 Y-4.79228 E1 F600
G1 X-4.47099 Y6.71038
G1 X5.89666 Y-3.65727 E1 F600
G1 X3.96199 Y7.76435
G1 X-6.32462 Y-2.52226 E1 F600
G1 X-3.04957 Y7.76435
G1 X-4.91003 Y5.90388 E1 F600
G1 X-2.01918 Y7.76435
G1 X7.13242 Y-1.38725 E1 F600
G1 X1.4866 Y7.76435
G1 X7.19431 Y2.05663 E1 F600
G1 X0.456208 Y7.76435
G1 X-7.56038 Y-0.252236 E1 F600
G1 Z1.0906
G1 X-5.42253 Y-4.17936
G1 X-4.29991 Y-6.24158 E1 F600
G1 X4.48982 Y-6.24158 E1 F600
G1 X4.34244 Y-7.41089
G1 X-4.15252 Y-7.41089 E1 F600
G1 X-8.4 Y0.391543 E1 F600
G1 X-4.15252 Y8.19398 E1 F600
G1 X4.34244 Y8.19398 E1 F600
G1 X8.58992 Y0.391543 E1 F600
G1 X4.34244 Y-7.41089 E1 F600
G1 X5.09995 Y-5.1208
G1 X3.23949 Y-6.98126 E1 F600
G1 X5.61245 Y-4.17936
G1 X-5.42253 Y-4.17936 E1 F600
G1 X-6.54517 Y-2.11713
G1 X6.73508 Y-2.11713 E1 F600
G1 X5.61245 Y-4.17936 E1 F600
G1 X7.85771 Y-0.0549109
G1 X-7.66779 Y-0.0549109 E1 F600
G1 X-6.54517 Y-2.11713 E1 F600
G1 X-7.0044 Y-1.27355
G1 X-1.29668 Y-6.98126 E1 F600
G1 X-7.03125 Y2.00731
G1 X7.22116 Y2.00731 E1 F600
G1 X8.10075 Y0.391543 E1 F600
G1 X7.85771 Y-0.0549109 E1 F600
G1 X7.75029 Y1.03532
G1 X-0.26629 Y-6.98126 E1 F600
G1 X-6.9425 Y2.17033
G1 X2.2091 Y-6.98126 E1 F600
G1 X6.51454 Y3.30535
G1 X-3.77207 Y-6.98126 E1 F600
G1 X-5.90862 Y4.06953
G1 X-7.03125 Y2.00731 E1 F600
G1 X-5.70675 Y4.44036
G1 X4.66091 Y-5.9273 E1 F600
G1 X6.09853 Y4.06953
G1 X-5.90862 Y4.06953 E1 F600
G1 X-4.78599 Y6.13176
G1 X4.9759 Y6.13176 E1 F600
G1 X6.09853 Y4.06953 E1 F600
G1 X5.27879 Y5.57537
G1 X-5.08887 Y-4.79228 E1 F600
G1 X-4.47099 Y6.71038
G1 X5.89666 Y-3.65727 E1 F600
G1 X3.96199 Y7.76435
G1 X-6.32462 Y-2.52226 E1 F600
G1 X-3.04957 Y7.76435
G1 X-4.91003 Y5.90388 E1 F600
G1 X-2.01918 Y7.76435
G1 X7.13242 Y-1.38725 E1 F600
G1 X1.4866 Y7.76435
G1 X7.19431 Y2.05663 E1 F600
G1 X0.456208 Y7.76435
G1 X-7.56038 Y-0.252236 E1 F600
G1 Z1.5006
G1 X-5.42253 Y-4.17936
G1 X-4.29991 Y-6.24158 E1 F600
G1 X4.48982 Y-6.24158 E1 F600
G1 X4.34244 Y-7.41089
G1 X-4.15252 Y-7.41089 E1 F600
G1 X-8.4 Y0.391543 E1 F600
G1 X-4.15252 Y8.19398 E1 F600
G1 X4.34244 Y8.19398 E1 F600
G1 X8.58992 Y0.391543 E1 F600
G1 X4.34244 Y-7.41089 E1 F600
G1 X5.09995 Y-5.1208
G1 X3.23949 Y-6.98126 E1 F600
G1 X5.61245 Y-4.17936
G1 X-5.42253 Y-4.17936 E1 F600
G1 X-6.54517 Y-2.11713
G1 X6.73508 Y-2.11713 E1 F600
G1 X5.61245 Y-4.17936 E1 F600
G1 X7.85771 Y-0.0549109
G1 X-7.66779 Y-0.0549109 E1 F600
G1 X-6.54517 Y-2.11713 E1 F600
G1 X-7.0044 Y-1.27355
G1 X-1.29668 Y-6.98126 E1 F600
G1 X-7.03125 Y2.00731
G1 X7.22116 Y2.00731 E1 F600
G1 X8.10075 Y0.391543 E1 F600
G1 X7.85771 Y-0.0549109 E1 F600
G1 X7.75029 Y1.03532
G1 X-0.26629 Y-6.98126 E1 F600
G1 X-6.9425 Y2.17033
G1 X2.2091 Y-6.98126 E1 F600
G1 X6.51454 Y3.30535
G1 X-3.77207 Y-6.98126 E1 F600
G1 X-5.90862 Y4.06953
G1 X-7.03125 Y2.00731 E1 F600
G1 X-5.70675 Y4.44036
G1 X4.66091 Y-5.9273 E1 F600
G1 X6.09853 Y4.06953
G1 X-5.90862 Y4.06953 E1 F600
G1 X-4.78599 Y6.13176
G1 X4.9759 Y6.13176 E1 F600
G1 X6.09853 Y4.06953 E1 F600
G1 X5.27879 Y5.57537
G1 X-5.08887 Y-4.79228 E1 F600
G1 X-4.47099 Y6.71038
G1 X5.89666 Y-3.65727 E1 F600
G1 X3.96199 Y7.76435
G1 X-6.32462 Y-2.52226 E1 F600
G1 X-3.04957 Y7.76435
G1 X-4.91003 Y5.90388 E1 F600
G1 X-2.01918 Y7.76435
G1 X7.13242 Y-1.38725 E1 F600
G1 X1.4866 Y7.76435
G1 X7.19431 Y2.05663 E1 F600
G1 X0.456208 Y7.76435
G1 X-7.56038 Y-0.252236 E1 F600
;xmin 8.400000
;xmax 8.589920
;ymin 7.410890
;ymax 8.193980
;zmin 0.000000
;zmax 1.500600
;alternatingmarkers 0
