; BEGIN_HEADER
; This file was generated by a biox6 at 18.09.2023 12:23:48 Eastern Daylight Time
; VERSION: 1.1.0
; PRINTER_NAME: biox6
; DATE_TIME: 18.09.2023 12:23:48 Eastern Daylight Time
; T1: TemperatureControlled
; END_HEADER
T0 Z0.41
G1 X-3.76543 Y-0.475122
G1 X3.76543 Y-0.475122 E1 F1200
G1 X3.76543 Y-1.97157 E1 F1200
G1 X-3.76543 Y-1.97157 E1 F1200
G1 X-3.76543 Y-3.46801 E1 F1200
G1 X3.76543 Y-3.46801 E1 F1200
G1 X3.76543 Y-4.96446 E1 F1200
G1 X-3.76543 Y-4.96446 E1 F1200
G1 X-3.76543 Y-6.46091 E1 F1200
G1 X3.76543 Y-6.46091 E1 F1200
G1 X3.76543 Y-7.95735 E1 F1200
G1 X-3.76543 Y-7.95735 E1 F1200
G1 X-5 Y-10
G1 X-5 Y10 E1 F1200
G1 X5 Y10 E1 F1200
G1 X5 Y-10 E1 F1200
G1 X-5 Y-10 E1 F1200
G1 X-3.76543 Y1.02132
G1 X-3.76543 Y-0.475122 E1 F1200
G1 X-3.76543 Y2.51777
G1 X3.76543 Y2.51777 E1 F1200
G1 X3.76543 Y1.02132 E1 F1200
G1 X-3.76543 Y1.02132 E1 F1200
G1 X-3.76543 Y4.01422
G1 X-3.76543 Y2.51777 E1 F1200
G1 X-3.76543 Y5.51066
G1 X3.76543 Y5.51066 E1 F1200
G1 X3.76543 Y4.01422 E1 F1200
G1 X-3.76543 Y4.01422 E1 F1200
G1 X-3.76543 Y7.00711
G1 X-3.76543 Y5.51066 E1 F1200
G1 X-3.76543 Y8.50355
G1 X3.76543 Y8.50355 E1 F1200
G1 X3.76543 Y7.00711 E1 F1200
G1 X-3.76543 Y7.00711 E1 F1200
G1 X-3.50355 Y8.76543
G1 X-3.50355 Y-8.76543 E1 F1200
G1 X-2.00711 Y8.76543
G1 X-2.00711 Y-8.76543 E1 F1200
G1 X-0.510662 Y8.76543
G1 X-0.510662 Y-8.76543 E1 F1200
G1 X0.985784 Y8.76543
G1 X0.985784 Y-8.76543 E1 F1200
G1 X2.48223 Y8.76543
G1 X2.48223 Y-8.76543 E1 F1200
G1 Z0.82
G1 X-3.76543 Y-0.475122
G1 X3.76543 Y-0.475122 E1 F1200
G1 X3.76543 Y-1.97157 E1 F1200
G1 X-3.76543 Y-1.97157 E1 F1200
G1 X-3.76543 Y-3.46801 E1 F1200
G1 X3.76543 Y-3.46801 E1 F1200
G1 X3.76543 Y-4.96446 E1 F1200
G1 X-3.76543 Y-4.96446 E1 F1200
G1 X-3.76543 Y-6.46091 E1 F1200
G1 X3.76543 Y-6.46091 E1 F1200
G1 X3.76543 Y-7.95735 E1 F1200
G1 X-3.76543 Y-7.95735 E1 F1200
G1 X-5 Y-10
G1 X-5 Y10 E1 F1200
G1 X5 Y10 E1 F1200
G1 X5 Y-10 E1 F1200
G1 X-5 Y-10 E1 F1200
G1 X-3.76543 Y1.02132
G1 X-3.76543 Y-0.475122 E1 F1200
G1 X-3.76543 Y2.51777
G1 X3.76543 Y2.51777 E1 F1200
G1 X3.76543 Y1.02132 E1 F1200
G1 X-3.76543 Y1.02132 E1 F1200
G1 X-3.76543 Y4.01422
G1 X-3.76543 Y2.51777 E1 F1200
G1 X-3.76543 Y5.51066
G1 X3.76543 Y5.51066 E1 F1200
G1 X3.76543 Y4.01422 E1 F1200
G1 X-3.76543 Y4.01422 E1 F1200
G1 X-3.76543 Y7.00711
G1 X-3.76543 Y5.51066 E1 F1200
G1 X-3.76543 Y8.50355
G1 X3.76543 Y8.50355 E1 F1200
G1 X3.76543 Y7.00711 E1 F1200
G1 X-3.76543 Y7.00711 E1 F1200
G1 X-3.50355 Y8.76543
G1 X-3.50355 Y-8.76543 E1 F1200
G1 X-2.00711 Y8.76543
G1 X-2.00711 Y-8.76543 E1 F1200
G1 X-0.510662 Y8.76543
G1 X-0.510662 Y-8.76543 E1 F1200
G1 X0.985784 Y8.76543
G1 X0.985784 Y-8.76543 E1 F1200
G1 X2.48223 Y8.76543
G1 X2.48223 Y-8.76543 E1 F1200
G1 Z1.23
G1 X-3.76543 Y-0.475122
G1 X3.76543 Y-0.475122 E1 F1200
G1 X3.76543 Y-1.97157 E1 F1200
G1 X-3.76543 Y-1.97157 E1 F1200
G1 X-3.76543 Y-3.46801 E1 F1200
G1 X3.76543 Y-3.46801 E1 F1200
G1 X3.76543 Y-4.96446 E1 F1200
G1 X-3.76543 Y-4.96446 E1 F1200
G1 X-3.76543 Y-6.46091 E1 F1200
G1 X3.76543 Y-6.46091 E1 F1200
G1 X3.76543 Y-7.95735 E1 F1200
G1 X-3.76543 Y-7.95735 E1 F1200
G1 X-5 Y-10
G1 X-5 Y10 E1 F1200
G1 X5 Y10 E1 F1200
G1 X5 Y-10 E1 F1200
G1 X-5 Y-10 E1 F1200
G1 X-3.76543 Y1.02132
G1 X-3.76543 Y-0.475122 E1 F1200
G1 X-3.76543 Y2.51777
G1 X3.76543 Y2.51777 E1 F1200
G1 X3.76543 Y1.02132 E1 F1200
G1 X-3.76543 Y1.02132 E1 F1200
G1 X-3.76543 Y4.01422
G1 X-3.76543 Y2.51777 E1 F1200
G1 X-3.76543 Y5.51066
G1 X3.76543 Y5.51066 E1 F1200
G1 X3.76543 Y4.01422 E1 F1200
G1 X-3.76543 Y4.01422 E1 F1200
G1 X-3.76543 Y7.00711
G1 X-3.76543 Y5.51066 E1 F1200
G1 X-3.76543 Y8.50355
G1 X3.76543 Y8.50355 E1 F1200
G1 X3.76543 Y7.00711 E1 F1200
G1 X-3.76543 Y7.00711 E1 F1200
G1 X-3.50355 Y8.76543
G1 X-3.50355 Y-8.76543 E1 F1200
G1 X-2.00711 Y8.76543
G1 X-2.00711 Y-8.76543 E1 F1200
G1 X-0.510662 Y8.76543
G1 X-0.510662 Y-8.76543 E1 F1200
G1 X0.985784 Y8.76543
G1 X0.985784 Y-8.76543 E1 F1200
G1 X2.48223 Y8.76543
G1 X2.48223 Y-8.76543 E1 F1200
G1 Z1.64
G1 X-3.76543 Y-0.475122
G1 X3.76543 Y-0.475122 E1 F1200
G1 X3.76543 Y-1.97157 E1 F1200
G1 X-3.76543 Y-1.97157 E1 F1200
G1 X-3.76543 Y-3.46801 E1 F1200
G1 X3.76543 Y-3.46801 E1 F1200
G1 X3.76543 Y-4.96446 E1 F1200
G1 X-3.76543 Y-4.96446 E1 F1200
G1 X-3.76543 Y-6.46091 E1 F1200
G1 X3.76543 Y-6.46091 E1 F1200
G1 X3.76543 Y-7.95735 E1 F1200
G1 X-3.76543 Y-7.95735 E1 F1200
G1 X-5 Y-10
G1 X-5 Y10 E1 F1200
G1 X5 Y10 E1 F1200
G1 X5 Y-10 E1 F1200
G1 X-5 Y-10 E1 F1200
G1 X-3.76543 Y1.02132
G1 X-3.76543 Y-0.475122 E1 F1200
G1 X-3.76543 Y2.51777
G1 X3.76543 Y2.51777 E1 F1200
G1 X3.76543 Y1.02132 E1 F1200
G1 X-3.76543 Y1.02132 E1 F1200
G1 X-3.76543 Y4.01422
G1 X-3.76543 Y2.51777 E1 F1200
G1 X-3.76543 Y5.51066
G1 X3.76543 Y5.51066 E1 F1200
G1 X3.76543 Y4.01422 E1 F1200
G1 X-3.76543 Y4.01422 E1 F1200
G1 X-3.76543 Y7.00711
G1 X-3.76543 Y5.51066 E1 F1200
G1 X-3.76543 Y8.50355
G1 X3.76543 Y8.50355 E1 F1200
G1 X3.76543 Y7.00711 E1 F1200
G1 X-3.76543 Y7.00711 E1 F1200
G1 X-3.50355 Y8.76543
G1 X-3.50355 Y-8.76543 E1 F1200
G1 X-2.00711 Y8.76543
G1 X-2.00711 Y-8.76543 E1 F1200
G1 X-0.510662 Y8.76543
G1 X-0.510662 Y-8.76543 E1 F1200
G1 X0.985784 Y8.76543
G1 X0.985784 Y-8.76543 E1 F1200
G1 X2.48223 Y8.76543
G1 X2.48223 Y-8.76543 E1 F1200
G1 Z2.05
G1 X-3.76543 Y-0.475122
G1 X3.76543 Y-0.475122 E1 F1200
G1 X3.76543 Y-1.97157 E1 F1200
G1 X-3.76543 Y-1.97157 E1 F1200
G1 X-3.76543 Y-3.46801 E1 F1200
G1 X3.76543 Y-3.46801 E1 F1200
G1 X3.76543 Y-4.96446 E1 F1200
G1 X-3.76543 Y-4.96446 E1 F1200
G1 X-3.76543 Y-6.46091 E1 F1200
G1 X3.76543 Y-6.46091 E1 F1200
G1 X3.76543 Y-7.95735 E1 F1200
G1 X-3.76543 Y-7.95735 E1 F1200
G1 X-5 Y-10
G1 X-5 Y10 E1 F1200
G1 X5 Y10 E1 F1200
G1 X5 Y-10 E1 F1200
G1 X-5 Y-10 E1 F1200
G1 X-3.76543 Y1.02132
G1 X-3.76543 Y-0.475122 E1 F1200
G1 X-3.76543 Y2.51777
G1 X3.76543 Y2.51777 E1 F1200
G1 X3.76543 Y1.02132 E1 F1200
G1 X-3.76543 Y1.02132 E1 F1200
G1 X-3.76543 Y4.01422
G1 X-3.76543 Y2.51777 E1 F1200
G1 X-3.76543 Y5.51066
G1 X3.76543 Y5.51066 E1 F1200
G1 X3.76543 Y4.01422 E1 F1200
G1 X-3.76543 Y4.01422 E1 F1200
G1 X-3.76543 Y7.00711
G1 X-3.76543 Y5.51066 E1 F1200
G1 X-3.76543 Y8.50355
G1 X3.76543 Y8.50355 E1 F1200
G1 X3.76543 Y7.00711 E1 F1200
G1 X-3.76543 Y7.00711 E1 F1200
G1 X-3.50355 Y8.76543
G1 X-3.50355 Y-8.76543 E1 F1200
G1 X-2.00711 Y8.76543
G1 X-2.00711 Y-8.76543 E1 F1200
G1 X-0.510662 Y8.76543
G1 X-0.510662 Y-8.76543 E1 F1200
G1 X0.985784 Y8.76543
G1 X0.985784 Y-8.76543 E1 F1200
G1 X2.48223 Y8.76543
G1 X2.48223 Y-8.76543 E1 F1200
G1 Z2.46
G1 X-3.76543 Y-0.475122
G1 X3.76543 Y-0.475122 E1 F1200
G1 X3.76543 Y-1.97157 E1 F1200
G1 X-3.76543 Y-1.97157 E1 F1200
G1 X-3.76543 Y-3.46801 E1 F1200
G1 X3.76543 Y-3.46801 E1 F1200
G1 X3.76543 Y-4.96446 E1 F1200
G1 X-3.76543 Y-4.96446 E1 F1200
G1 X-3.76543 Y-6.46091 E1 F1200
G1 X3.76543 Y-6.46091 E1 F1200
G1 X3.76543 Y-7.95735 E1 F1200
G1 X-3.76543 Y-7.95735 E1 F1200
G1 X-5 Y-10
G1 X-5 Y10 E1 F1200
G1 X5 Y10 E1 F1200
G1 X5 Y-10 E1 F1200
G1 X-5 Y-10 E1 F1200
G1 X-3.76543 Y1.02132
G1 X-3.76543 Y-0.475122 E1 F1200
G1 X-3.76543 Y2.51777
G1 X3.76543 Y2.51777 E1 F1200
G1 X3.76543 Y1.02132 E1 F1200
G1 X-3.76543 Y1.02132 E1 F1200
G1 X-3.76543 Y4.01422
G1 X-3.76543 Y2.51777 E1 F1200
G1 X-3.76543 Y5.51066
G1 X3.76543 Y5.51066 E1 F1200
G1 X3.76543 Y4.01422 E1 F1200
G1 X-3.76543 Y4.01422 E1 F1200
G1 X-3.76543 Y7.00711
G1 X-3.76543 Y5.51066 E1 F1200
G1 X-3.76543 Y8.50355
G1 X3.76543 Y8.50355 E1 F1200
G1 X3.76543 Y7.00711 E1 F1200
G1 X-3.76543 Y7.00711 E1 F1200
G1 X-3.50355 Y8.76543
G1 X-3.50355 Y-8.76543 E1 F1200
G1 X-2.00711 Y8.76543
G1 X-2.00711 Y-8.76543 E1 F1200
G1 X-0.510662 Y8.76543
G1 X-0.510662 Y-8.76543 E1 F1200
G1 X0.985784 Y8.76543
G1 X0.985784 Y-8.76543 E1 F1200
G1 X2.48223 Y8.76543
G1 X2.48223 Y-8.76543 E1 F1200
;xmin 5.000000
;xmax 5.000000
;ymin 10.000000
;ymax 10.000000
;zmin 0.000000
;zmax 2.460000
;alternatingmarkers 0
