; BEGIN_HEADER
; This file was generated by a biox6 at 18.05.2023 11:12:09 Eastern Daylight Time
; VERSION: 1.1.0
; PRINTER_NAME: biox6
; DATE_TIME: 18.05.2023 11:12:09 Eastern Daylight Time
; T1: TemperatureControlled
; END_HEADER
T0 Z0.2706
G1 X6.17037 Y-1.91111
G1 X-7.97037 Y-1.91111 E1 F600
G1 X-8.4 Y-6.6
G1 X-8.4 Y8.4 E1 F600
G1 X6.6 Y8.4 E1 F600
G1 X6.6 Y-6.6 E1 F600
G1 X-8.4 Y-6.6 E1 F600
G1 X-7.97037 Y3.24444
G1 X6.17037 Y3.24444 E1 F600
G1 X6.17037 Y-1.91111 E1 F600
G1 X1.91111 Y7.97037
G1 X1.91111 Y-6.17037 E1 F600
G1 X-3.24444 Y7.97037
G1 X-3.24444 Y-6.17037 E1 F600
G1 Z0.6806
G1 X6.17037 Y-1.91111
G1 X-7.97037 Y-1.91111 E1 F600
G1 X-8.4 Y-6.6
G1 X-8.4 Y8.4 E1 F600
G1 X6.6 Y8.4 E1 F600
G1 X6.6 Y-6.6 E1 F600
G1 X-8.4 Y-6.6 E1 F600
G1 X-7.97037 Y3.24444
G1 X6.17037 Y3.24444 E1 F600
G1 X6.17037 Y-1.91111 E1 F600
G1 X1.91111 Y7.97037
G1 X1.91111 Y-6.17037 E1 F600
G1 X-3.24444 Y7.97037
G1 X-3.24444 Y-6.17037 E1 F600
G1 Z1.0906
G1 X6.17037 Y-1.91111
G1 X-7.97037 Y-1.91111 E1 F600
G1 X-8.4 Y-6.6
G1 X-8.4 Y8.4 E1 F600
G1 X6.6 Y8.4 E1 F600
G1 X6.6 Y-6.6 E1 F600
G1 X-8.4 Y-6.6 E1 F600
G1 X-7.97037 Y3.24444
G1 X6.17037 Y3.24444 E1 F600
G1 X6.17037 Y-1.91111 E1 F600
G1 X1.91111 Y7.97037
G1 X1.91111 Y-6.17037 E1 F600
G1 X-3.24444 Y7.97037
G1 X-3.24444 Y-6.17037 E1 F600
G1 Z1.5006
G1 X6.17037 Y-1.91111
G1 X-7.97037 Y-1.91111 E1 F600
G1 X-8.4 Y-6.6
G1 X-8.4 Y8.4 E1 F600
G1 X6.6 Y8.4 E1 F600
G1 X6.6 Y-6.6 E1 F600
G1 X-8.4 Y-6.6 E1 F600
G1 X-7.97037 Y3.24444
G1 X6.17037 Y3.24444 E1 F600
G1 X6.17037 Y-1.91111 E1 F600
G1 X1.91111 Y7.97037
G1 X1.91111 Y-6.17037 E1 F600
G1 X-3.24444 Y7.97037
G1 X-3.24444 Y-6.17037 E1 F600
G1 Z1.9106
G1 X6.17037 Y-1.91111
G1 X-7.97037 Y-1.91111 E1 F600
G1 X-8.4 Y-6.6
G1 X-8.4 Y8.4 E1 F600
G1 X6.6 Y8.4 E1 F600
G1 X6.6 Y-6.6 E1 F600
G1 X-8.4 Y-6.6 E1 F600
G1 X-7.97037 Y3.24444
G1 X6.17037 Y3.24444 E1 F600
G1 X6.17037 Y-1.91111 E1 F600
G1 X1.91111 Y7.97037
G1 X1.91111 Y-6.17037 E1 F600
G1 X-3.24444 Y7.97037
G1 X-3.24444 Y-6.17037 E1 F600
G1 Z2.3206
G1 X6.17037 Y-1.91111
G1 X-7.97037 Y-1.91111 E1 F600
G1 X-8.4 Y-6.6
G1 X-8.4 Y8.4 E1 F600
G1 X6.6 Y8.4 E1 F600
G1 X6.6 Y-6.6 E1 F600
G1 X-8.4 Y-6.6 E1 F600
G1 X-7.97037 Y3.24444
G1 X6.17037 Y3.24444 E1 F600
G1 X6.17037 Y-1.91111 E1 F600
G1 X1.91111 Y7.97037
G1 X1.91111 Y-6.17037 E1 F600
G1 X-3.24444 Y7.97037
G1 X-3.24444 Y-6.17037 E1 F600
G1 Z2.7306
G1 X6.17037 Y-1.91111
G1 X-7.97037 Y-1.91111 E1 F600
G1 X-8.4 Y-6.6
G1 X-8.4 Y8.4 E1 F600
G1 X6.6 Y8.4 E1 F600
G1 X6.6 Y-6.6 E1 F600
G1 X-8.4 Y-6.6 E1 F600
G1 X-7.97037 Y3.24444
G1 X6.17037 Y3.24444 E1 F600
G1 X6.17037 Y-1.91111 E1 F600
G1 X1.91111 Y7.97037
G1 X1.91111 Y-6.17037 E1 F600
G1 X-3.24444 Y7.97037
G1 X-3.24444 Y-6.17037 E1 F600
G1 Z3.1406
G1 X6.17037 Y-1.91111
G1 X-7.97037 Y-1.91111 E1 F600
G1 X-8.4 Y-6.6
G1 X-8.4 Y8.4 E1 F600
G1 X6.6 Y8.4 E1 F600
G1 X6.6 Y-6.6 E1 F600
G1 X-8.4 Y-6.6 E1 F600
G1 X-7.97037 Y3.24444
G1 X6.17037 Y3.24444 E1 F600
G1 X6.17037 Y-1.91111 E1 F600
G1 X1.91111 Y7.97037
G1 X1.91111 Y-6.17037 E1 F600
G1 X-3.24444 Y7.97037
G1 X-3.24444 Y-6.17037 E1 F600
;xmin 8.400000
;xmax 6.600000
;ymin 6.600000
;ymax 8.400000
;zmin 0.000000
;zmax 3.140600
;alternatingmarkers 0
