; BEGIN_HEADER
; This file was generated by a biox6 at 16.05.2023 15:33:01 Eastern Daylight Time
; VERSION: 1.1.0
; PRINTER_NAME: biox6
; DATE_TIME: 16.05.2023 15:33:01 Eastern Daylight Time
; T1: TemperatureControlled
; END_HEADER
T0 Z0.2706
G1 X-7.21778 Y0.902222
G1 X-7.21778 Y-2.53481 E1 F600
G1 X7.90519 Y-2.53481 E1 F600
G1 X7.90519 Y-5.97185 E1 F600
G1 X-7.21778 Y-5.97185 E1 F600
G1 X-7.64741 Y-8.16296
G1 X-7.64741 Y7.7763 E1 F600
G1 X8.33482 Y7.7763 E1 F600
G1 X8.33482 Y-8.16296 E1 F600
G1 X-7.64741 Y-8.16296 E1 F600
G1 X-7.21778 Y4.33926
G1 X7.90519 Y4.33926 E1 F600
G1 X7.90519 Y0.902222 E1 F600
G1 X-7.21778 Y0.902222 E1 F600
G1 X-4.21037 Y7.34667
G1 X-4.21037 Y-7.73333 E1 F600
G1 X-0.773333 Y7.34667
G1 X-0.773333 Y-7.73333 E1 F600
G1 X2.6637 Y7.34667
G1 X2.6637 Y-7.73333 E1 F600
G1 X6.10074 Y7.34667
G1 X6.10074 Y-7.73333 E1 F600
G1 Z0.6806
G1 X-7.21778 Y0.902222
G1 X-7.21778 Y-2.53481 E1 F600
G1 X7.90519 Y-2.53481 E1 F600
G1 X7.90519 Y-5.97185 E1 F600
G1 X-7.21778 Y-5.97185 E1 F600
G1 X-7.64741 Y-8.16296
G1 X-7.64741 Y7.7763 E1 F600
G1 X8.33482 Y7.7763 E1 F600
G1 X8.33482 Y-8.16296 E1 F600
G1 X-7.64741 Y-8.16296 E1 F600
G1 X-7.21778 Y4.33926
G1 X7.90519 Y4.33926 E1 F600
G1 X7.90519 Y0.902222 E1 F600
G1 X-7.21778 Y0.902222 E1 F600
G1 X-4.21037 Y7.34667
G1 X-4.21037 Y-7.73333 E1 F600
G1 X-0.773333 Y7.34667
G1 X-0.773333 Y-7.73333 E1 F600
G1 X2.6637 Y7.34667
G1 X2.6637 Y-7.73333 E1 F600
G1 X6.10074 Y7.34667
G1 X6.10074 Y-7.73333 E1 F600
G1 Z1.0906
G1 X-7.21778 Y0.902222
G1 X-7.21778 Y-2.53481 E1 F600
G1 X7.90519 Y-2.53481 E1 F600
G1 X7.90519 Y-5.97185 E1 F600
G1 X-7.21778 Y-5.97185 E1 F600
G1 X-7.64741 Y-8.16296
G1 X-7.64741 Y7.7763 E1 F600
G1 X8.33482 Y7.7763 E1 F600
G1 X8.33482 Y-8.16296 E1 F600
G1 X-7.64741 Y-8.16296 E1 F600
G1 X-7.21778 Y4.33926
G1 X7.90519 Y4.33926 E1 F600
G1 X7.90519 Y0.902222 E1 F600
G1 X-7.21778 Y0.902222 E1 F600
G1 X-4.21037 Y7.34667
G1 X-4.21037 Y-7.73333 E1 F600
G1 X-0.773333 Y7.34667
G1 X-0.773333 Y-7.73333 E1 F600
G1 X2.6637 Y7.34667
G1 X2.6637 Y-7.73333 E1 F600
G1 X6.10074 Y7.34667
G1 X6.10074 Y-7.73333 E1 F600
G1 Z1.5006
G1 X-7.21778 Y0.902222
G1 X-7.21778 Y-2.53481 E1 F600
G1 X7.90519 Y-2.53481 E1 F600
G1 X7.90519 Y-5.97185 E1 F600
G1 X-7.21778 Y-5.97185 E1 F600
G1 X-7.64741 Y-8.16296
G1 X-7.64741 Y7.7763 E1 F600
G1 X8.33482 Y7.7763 E1 F600
G1 X8.33482 Y-8.16296 E1 F600
G1 X-7.64741 Y-8.16296 E1 F600
G1 X-7.21778 Y4.33926
G1 X7.90519 Y4.33926 E1 F600
G1 X7.90519 Y0.902222 E1 F600
G1 X-7.21778 Y0.902222 E1 F600
G1 X-4.21037 Y7.34667
G1 X-4.21037 Y-7.73333 E1 F600
G1 X-0.773333 Y7.34667
G1 X-0.773333 Y-7.73333 E1 F600
G1 X2.6637 Y7.34667
G1 X2.6637 Y-7.73333 E1 F600
G1 X6.10074 Y7.34667
G1 X6.10074 Y-7.73333 E1 F600
;xmin 7.647410
;xmax 8.334820
;ymin 8.162960
;ymax 7.776300
;zmin 0.000000
;zmax 1.500600
;alternatingmarkers 0
