; BEGIN_HEADER
; This file was generated by a biox6 at 16.05.2023 15:06:31 Eastern Daylight Time
; VERSION: 1.1.0
; PRINTER_NAME: biox6
; DATE_TIME: 16.05.2023 15:06:31 Eastern Daylight Time
; T1: TemperatureControlled
; END_HEADER
T0 Z0.2706
G1 X-0.386667 Y7.43259
G1 X-0.386667 Y-7.13185 E1 F600
G1 X-8.20593 Y-6.57333
G1 X7.56148 Y-6.57333 E1 F600
G1 X7.99111 Y-7.56148
G1 X-8.63556 Y-7.56148 E1 F600
G1 X-8.63556 Y7.86222 E1 F600
G1 X7.99111 Y7.86222 E1 F600
G1 X7.99111 Y-7.56148 E1 F600
G1 X7.56148 Y-4.51111
G1 X-8.20593 Y-4.51111 E1 F600
G1 X-8.20593 Y-6.57333 E1 F600
G1 X-8.20593 Y-2.44889
G1 X7.56148 Y-2.44889 E1 F600
G1 X7.56148 Y-4.51111 E1 F600
G1 X7.56148 Y-0.386667
G1 X-8.20593 Y-0.386667 E1 F600
G1 X-8.20593 Y-2.44889 E1 F600
G1 X-8.20593 Y1.67556
G1 X7.56148 Y1.67556 E1 F600
G1 X7.56148 Y-0.386667 E1 F600
G1 X7.56148 Y3.73778
G1 X-8.20593 Y3.73778 E1 F600
G1 X-8.20593 Y1.67556 E1 F600
G1 X-8.20593 Y5.8
G1 X7.56148 Y5.8 E1 F600
G1 X7.56148 Y3.73778 E1 F600
G1 X5.8 Y7.43259
G1 X5.8 Y-7.13185 E1 F600
G1 X3.73778 Y7.43259
G1 X3.73778 Y-7.13185 E1 F600
G1 X1.67556 Y7.43259
G1 X1.67556 Y-7.13185 E1 F600
G1 X-2.44889 Y7.43259
G1 X-2.44889 Y-7.13185 E1 F600
G1 X-4.51111 Y7.43259
G1 X-4.51111 Y-7.13185 E1 F600
G1 X-6.57333 Y7.43259
G1 X-6.57333 Y-7.13185 E1 F600
G1 Z0.6806
G1 X-0.386667 Y7.43259
G1 X-0.386667 Y-7.13185 E1 F600
G1 X-8.20593 Y-6.57333
G1 X7.56148 Y-6.57333 E1 F600
G1 X7.99111 Y-7.56148
G1 X-8.63556 Y-7.56148 E1 F600
G1 X-8.63556 Y7.86222 E1 F600
G1 X7.99111 Y7.86222 E1 F600
G1 X7.99111 Y-7.56148 E1 F600
G1 X7.56148 Y-4.51111
G1 X-8.20593 Y-4.51111 E1 F600
G1 X-8.20593 Y-6.57333 E1 F600
G1 X-8.20593 Y-2.44889
G1 X7.56148 Y-2.44889 E1 F600
G1 X7.56148 Y-4.51111 E1 F600
G1 X7.56148 Y-0.386667
G1 X-8.20593 Y-0.386667 E1 F600
G1 X-8.20593 Y-2.44889 E1 F600
G1 X-8.20593 Y1.67556
G1 X7.56148 Y1.67556 E1 F600
G1 X7.56148 Y-0.386667 E1 F600
G1 X7.56148 Y3.73778
G1 X-8.20593 Y3.73778 E1 F600
G1 X-8.20593 Y1.67556 E1 F600
G1 X-8.20593 Y5.8
G1 X7.56148 Y5.8 E1 F600
G1 X7.56148 Y3.73778 E1 F600
G1 X5.8 Y7.43259
G1 X5.8 Y-7.13185 E1 F600
G1 X3.73778 Y7.43259
G1 X3.73778 Y-7.13185 E1 F600
G1 X1.67556 Y7.43259
G1 X1.67556 Y-7.13185 E1 F600
G1 X-2.44889 Y7.43259
G1 X-2.44889 Y-7.13185 E1 F600
G1 X-4.51111 Y7.43259
G1 X-4.51111 Y-7.13185 E1 F600
G1 X-6.57333 Y7.43259
G1 X-6.57333 Y-7.13185 E1 F600
G1 Z1.0906
G1 X-0.386667 Y7.43259
G1 X-0.386667 Y-7.13185 E1 F600
G1 X-8.20593 Y-6.57333
G1 X7.56148 Y-6.57333 E1 F600
G1 X7.99111 Y-7.56148
G1 X-8.63556 Y-7.56148 E1 F600
G1 X-8.63556 Y7.86222 E1 F600
G1 X7.99111 Y7.86222 E1 F600
G1 X7.99111 Y-7.56148 E1 F600
G1 X7.56148 Y-4.51111
G1 X-8.20593 Y-4.51111 E1 F600
G1 X-8.20593 Y-6.57333 E1 F600
G1 X-8.20593 Y-2.44889
G1 X7.56148 Y-2.44889 E1 F600
G1 X7.56148 Y-4.51111 E1 F600
G1 X7.56148 Y-0.386667
G1 X-8.20593 Y-0.386667 E1 F600
G1 X-8.20593 Y-2.44889 E1 F600
G1 X-8.20593 Y1.67556
G1 X7.56148 Y1.67556 E1 F600
G1 X7.56148 Y-0.386667 E1 F600
G1 X7.56148 Y3.73778
G1 X-8.20593 Y3.73778 E1 F600
G1 X-8.20593 Y1.67556 E1 F600
G1 X-8.20593 Y5.8
G1 X7.56148 Y5.8 E1 F600
G1 X7.56148 Y3.73778 E1 F600
G1 X5.8 Y7.43259
G1 X5.8 Y-7.13185 E1 F600
G1 X3.73778 Y7.43259
G1 X3.73778 Y-7.13185 E1 F600
G1 X1.67556 Y7.43259
G1 X1.67556 Y-7.13185 E1 F600
G1 X-2.44889 Y7.43259
G1 X-2.44889 Y-7.13185 E1 F600
G1 X-4.51111 Y7.43259
G1 X-4.51111 Y-7.13185 E1 F600
G1 X-6.57333 Y7.43259
G1 X-6.57333 Y-7.13185 E1 F600
G1 Z1.5006
G1 X-0.386667 Y7.43259
G1 X-0.386667 Y-7.13185 E1 F600
G1 X-8.20593 Y-6.57333
G1 X7.56148 Y-6.57333 E1 F600
G1 X7.99111 Y-7.56148
G1 X-8.63556 Y-7.56148 E1 F600
G1 X-8.63556 Y7.86222 E1 F600
G1 X7.99111 Y7.86222 E1 F600
G1 X7.99111 Y-7.56148 E1 F600
G1 X7.56148 Y-4.51111
G1 X-8.20593 Y-4.51111 E1 F600
G1 X-8.20593 Y-6.57333 E1 F600
G1 X-8.20593 Y-2.44889
G1 X7.56148 Y-2.44889 E1 F600
G1 X7.56148 Y-4.51111 E1 F600
G1 X7.56148 Y-0.386667
G1 X-8.20593 Y-0.386667 E1 F600
G1 X-8.20593 Y-2.44889 E1 F600
G1 X-8.20593 Y1.67556
G1 X7.56148 Y1.67556 E1 F600
G1 X7.56148 Y-0.386667 E1 F600
G1 X7.56148 Y3.73778
G1 X-8.20593 Y3.73778 E1 F600
G1 X-8.20593 Y1.67556 E1 F600
G1 X-8.20593 Y5.8
G1 X7.56148 Y5.8 E1 F600
G1 X7.56148 Y3.73778 E1 F600
G1 X5.8 Y7.43259
G1 X5.8 Y-7.13185 E1 F600
G1 X3.73778 Y7.43259
G1 X3.73778 Y-7.13185 E1 F600
G1 X1.67556 Y7.43259
G1 X1.67556 Y-7.13185 E1 F600
G1 X-2.44889 Y7.43259
G1 X-2.44889 Y-7.13185 E1 F600
G1 X-4.51111 Y7.43259
G1 X-4.51111 Y-7.13185 E1 F600
G1 X-6.57333 Y7.43259
G1 X-6.57333 Y-7.13185 E1 F600
;xmin 8.635560
;xmax 7.991110
;ymin 7.561480
;ymax 7.862220
;zmin 0.000000
;zmax 1.500600
;alternatingmarkers 0
